X:1
T:Oh! What A Pal Was Mary
T:Oh What A Pal Way Mary
C:Pete Wendling
Z:All Rights Reserved
L:1/4
M:3/4
K:G
V:1 treble nm="Piano" snm="Pno."
%%MIDI program 0
%%MIDI control 7 100
%%MIDI control 10 64
V:1
"G" B D B |"Eb7" _B3 |"G" =B D B |"Eb7" _B3 |"G" =B"D7" c"E6" ^c |"G" d B G |"Dm" =F3 |"E7" E3 | %8
w: Mar- y o'|mine,|Mar- y o'|mine,|grew like a|rose in a|bow-|er.|
"Am" c E c |"B7" B3 |"Am" c E c |"B7" B3 |"A7" ^c B A | G ^D E |"D7" B3 |"D7" A3 |"G" d d d | %17
w: Bloomed for a|day,|Fad- ed a-|way,|I lost a|beau- ti- ful|flow-|er.|sweet- heart and|
"Gdim" ^c3 |"Am" =c c c |"B7" B3 |"A7" G F G | B2 G |"D7" A3- | A z z |:"G" d2 B/G/ | D2"G+" ^D | %26
w: friend,|right to the|end;|That's why I|miss her|so.|_|Oh! what a|pal was|
"A" E3 |"A7" A3 |"D7" d2 c/A/ | E2 c |"G" B3- | B2 B |"B7/F#" B ^A B |"B7" F2 A |"C6" A2 G | %35
w: Mar-|y|Oh! what a|pal was|she;|_ An|an- gel was|born on|East- er|
"Em" B2"Em6" c |"A7" ^c B G |"A6" F2 E |"D7" A3- | A z z |"G" d2 B/G/ | D2"G+" ^D |"A" E3 | %43
w: morn, and|God sent her|down to|me.|_|Heart of my|heart was|Mar-|
"A7" A3 |"D7" d2 c/B/ | A2 ^A |"B7" B3- |"E7" B2 z |"Am" e2 c/A/ |"Gdim" E3 |"G" d2 B/G/ | %51
w: y,|Soul of my|soul di-|vine,|_|Though she is|gone,|love ling- ers|
"G+" D2 ^D |"Am" E F"Am7" G |"D7" c2 B |1"G""Gdim" G3- |"D7" G z z :|2"G" G3- || G z z |] %58
w: on, for|Mar- y old|pal of|mine.|_|mine.||

